X: 39925
T: Thomas' Farewell
R: waltz
M: 3/4
K: Eminor
EF|:G3BG2|F2A2F2|E2D2D2|D4EF|
[1G3BG2|F2A2F2|E3FED|E4EF:|
[2G3FE2|B,2E3D|E6|E4F2||
G3ABc|d2B2G2|F2D2D2|D4F2|G3ABc|
d2B2d2|e6|e4e2|d3BG2|A2B2G2|F2D2D2|
D4EF|G3FE2|B,2E3D|E6|E4||

